.files/icons/devices/Watch#1.svg

<svg fill="none" height="48" viewBox="0 0 48 48" width="48" xmlns="http://www.w3.org/2000/svg"><g fill="#000"><path clip-rule="evenodd" d="m30 12h-12c-3.3137 0-6 2.6863-6 6v12c0 3.3137 2.6863 6 6 6h12c3.3137 0 6-2.6863 6-6v-12c0-3.3137-2.6863-6-6-6zm-14 6c0-1.1046.8954-2 2-2h12c1.1046 0 2 .8954 2 2v12c0 1.1046-.8954 2-2 2h-12c-1.1046 0-2-.8954-2-2z" fill-rule="evenodd"/><path clip-rule="evenodd" d="m18 16c-1.1046 0-2 .8954-2 2v12c0 1.1046.8954 2 2 2h12c1.1046 0 2-.8954 2-2v-12c0-1.1046-.8954-2-2-2z" fill-rule="evenodd" opacity=".3"/><path d="m18 36h12v6.5c0 .8284-.6716 1.5-1.5 1.5h-9c-.8284 0-1.5-.6716-1.5-1.5z" opacity=".3"/><path d="m18 5.5c0-.82843.6716-1.5 1.5-1.5h9c.8284 0 1.5.67157 1.5 1.5v6.5h-12z" opacity=".3"/></g></svg>

<svg width="48" height="48" viewBox="0 0 48 48" fill="none" xmlns="http://www.w3.org/2000/svg">
<path fill-rule="evenodd" clip-rule="evenodd" d="M30 12H18C14.6863 12 12 14.6863 12 18V30C12 33.3137 14.6863 36 18 36H30C33.3137 36 36 33.3137 36 30V18C36 14.6863 33.3137 12 30 12ZM16 18C16 16.8954 16.8954 16 18 16H30C31.1046 16 32 16.8954 32 18V30C32 31.1046 31.1046 32 30 32H18C16.8954 32 16 31.1046 16 30V18Z" fill="black"/>
<path opacity="0.3" fill-rule="evenodd" clip-rule="evenodd" d="M18 16C16.8954 16 16 16.8954 16 18V30C16 31.1046 16.8954 32 18 32H30C31.1046 32 32 31.1046 32 30V18C32 16.8954 31.1046 16 30 16H18Z" fill="black"/>
<path opacity="0.3" d="M18 36H30V42.5C30 43.3284 29.3284 44 28.5 44H19.5C18.6716 44 18 43.3284 18 42.5V36Z" fill="black"/>
<path opacity="0.3" d="M18 5.5C18 4.67157 18.6716 4 19.5 4H28.5C29.3284 4 30 4.67157 30 5.5V12H18V5.5Z" fill="black"/>
</svg>
